images/linkedin.svg

<svg xmlns="http://www.w3.org/2000/svg" xmlns:xlink="http://www.w3.org/1999/xlink" viewBox="0 0 1000 1000" enable-background="new 0 0 1000 1000"><path fill="#c33" d="M0 0h1000v1000h-1000z"/><g><defs><path id="a" d="M0 0h1000v1000h-1000z"/></defs><clipPath><use xlink:href="#a" overflow="visible"/></clipPath><defs><path id="b" d="M0 0h1000v1000h-1000z"/></defs><clipPath><use xlink:href="#b" overflow="visible"/></clipPath><g fill="#fff"><path d="M171.1 386h141.1v453.3h-141.1v-453.3zm70.6-225.3c45.1 0 81.7 36.6 81.7 81.7s-36.6 81.7-81.7 81.7c-45.3 0-81.8-36.6-81.8-81.7s36.5-81.7 81.8-81.7"/><path d="M400.7 386h135.1v62h1.9c18.8-35.7 64.8-73.2 133.4-73.2 142.6 0 169 93.8 169 215.9v248.6h-140.8v-220.4c0-52.6-1-120.2-73.3-120.2-73.4 0-84.5 57.3-84.5 116.3v224.3h-140.8v-453.3z"/></g></g></svg>

<?xml version="1.0" encoding="utf-8"?>
<!-- Generator: Adobe Illustrator 19.1.0, SVG Export Plug-In . SVG Version: 6.00 Build 0)  -->
<svg version="1.1" xmlns="http://www.w3.org/2000/svg" xmlns:xlink="http://www.w3.org/1999/xlink" x="0px" y="0px"
	 viewBox="0 0 1000 1000" enable-background="new 0 0 1000 1000" xml:space="preserve">
<g id="Layer_2">
	<rect fill="#CC3333" width="1000" height="1000"/>
</g>
<g id="Layer_3">
	<g>
		<defs>
			<rect id="SVGID_1_" x="0" y="0" width="1000" height="1000"/>
		</defs>
		<clipPath id="SVGID_2_">
			<use xlink:href="#SVGID_1_"  overflow="visible"/>
		</clipPath>
	</g>
	<path display="none" fill="#EDF0F3" d="M524.7,171.8v165.9h155.7v103H524.7v168.3c0,38,2,62.4,6,73.3c4.1,10.8,11.5,19.4,22.5,25.9
		c14.5,8.7,31.1,13.1,49.8,13.1c33.2,0,66.3-10.9,99.1-32.4v103.5c-28,13.2-53.4,22.5-76.2,27.8c-22.7,5.3-47.3,8-73.7,8
		c-30,0-56.5-3.8-79.6-11.4c-23.1-7.6-42.7-18.4-59-32.4c-16.3-14-27.6-28.9-33.9-44.8c-6.3-15.7-9.4-38.6-9.4-68.6V440.7h-72.6
		v-92.9c25.8-8.3,47.9-20.4,66.2-36c18.4-15.7,33.2-34.4,44.3-56.4c11.1-21.9,18.8-49.8,23-83.7H524.7z"/>
	<g>
		<defs>
			<rect id="SVGID_3_" x="0" y="0" width="1000" height="1000"/>
		</defs>
		<clipPath id="SVGID_4_">
			<use xlink:href="#SVGID_3_"  overflow="visible"/>
		</clipPath>
	</g>
	<g>
		<path fill="#FFFFFF" d="M171.1,386h141.1v453.3H171.1V386z M241.7,160.7c45.1,0,81.7,36.6,81.7,81.7c0,45.1-36.6,81.7-81.7,81.7
			c-45.3,0-81.8-36.6-81.8-81.7C159.9,197.3,196.4,160.7,241.7,160.7"/>
		<path fill="#FFFFFF" d="M400.7,386h135.1V448h1.9c18.8-35.7,64.8-73.2,133.4-73.2c142.6,0,169,93.8,169,215.9v248.6H699.3V618.9
			c0-52.6-1-120.2-73.3-120.2c-73.4,0-84.5,57.3-84.5,116.3v224.3H400.7V386z"/>
	</g>
</g>
<g id="Layer_1" display="none">
	<g display="inline">
		<path fill="#FFFFFF" d="M429.2,459.9c0,0,63-4.7,63-78.6c0-73.9-51.5-109.9-116.9-109.9H255.2h-3.5h-91.1v412.9h91.1h3.5h120.2
			c0,0,131.2,4.1,131.2-121.9C506.6,562.4,512.2,459.9,429.2,459.9z M359.9,344.8h15.4c0,0,29.2,0,29.2,43
			c0,42.9-17.2,49.2-36.7,49.2H255.2v-92.1H359.9z M369.3,611H255.2V500.6h120.2c0,0,43.5-0.6,43.5,56.7
			C418.9,605.6,386.4,610.6,369.3,611z"/>
		<path fill="#FFFFFF" d="M681.5,376.5c-158.8,0-158.7,158.6-158.7,158.6S511.9,693,681.5,693c0,0,141.3,8.1,141.3-109.8h-72.7
			c0,0,2.4,44.4-66.2,44.4c0,0-72.7,4.9-72.7-71.9h214C825.2,555.7,848.6,376.5,681.5,376.5z M610.4,500.6c0,0,8.9-63.6,72.7-63.6
			c63.8,0,63,63.6,63,63.6H610.4z"/>
		<rect x="592.6" y="295.7" fill="#FFFFFF" width="170.4" height="50.8"/>
	</g>
</g>
</svg>
